X:103
T:Port L\'airge
T:Bh\'iosa L\'a I bPort L\'airge
R:polka
Z:id:hn-polka-103
M:2/4
L:1/8
K:D
f/e/ | dB AF | A>B AB | dd ed/e/ | fe ef/e/ |
dB AF | A>B AB | dd ed/e/ | fd d :|
|: e | fe fg | a2 gf | eb ba | be ef/e/ |
dB AF | A>B AB | dd ed/e/ | fd d :|

